src/lib/packages/icons/src/assets/filled/arrow-left-arrow-right.svg

<svg width="24" height="24" viewBox="0 0 24 24" fill="none" xmlns="http://www.w3.org/2000/svg">
<path d="M6.29304 11.7071L2.29401 7.70805C2.20101 7.61505 2.12797 7.50512 2.07697 7.38212C1.97597 7.13812 1.97597 6.86196 2.07697 6.61796C2.12797 6.49496 2.20101 6.38503 2.29401 6.29203L6.29304 2.29301C6.68403 1.90201 7.3161 1.90201 7.7071 2.29301C8.0981 2.68401 8.0981 3.31607 7.7071 3.70707L5.41413 6.00004H17.0001C17.5531 6.00004 18.0001 6.44804 18.0001 7.00004C18.0001 7.55204 17.5531 8.00004 17.0001 8.00004H5.41413L7.7071 10.293C8.0981 10.684 8.0981 11.3161 7.7071 11.7071C7.5121 11.9021 7.25607 12 7.00007 12C6.74407 12 6.48804 11.9021 6.29304 11.7071ZM21.9232 16.618C21.8722 16.495 21.7991 16.385 21.7061 16.292L17.7071 12.293C17.3161 11.902 16.684 11.902 16.293 12.293C15.902 12.684 15.902 13.3161 16.293 13.7071L18.586 16H7.00007C6.44707 16 6.00007 16.448 6.00007 17C6.00007 17.552 6.44707 18 7.00007 18H18.586L16.293 20.293C15.902 20.684 15.902 21.3161 16.293 21.7071C16.488 21.9021 16.7441 22 17.0001 22C17.2561 22 17.5121 21.9021 17.7071 21.7071L21.7061 17.708C21.7991 17.615 21.8722 17.5051 21.9232 17.3821C22.0242 17.1381 22.0242 16.862 21.9232 16.618Z" fill="currentColor"/>
</svg>

<svg xmlns="http://www.w3.org/2000/svg" width="24" height="24" fill="none"><path fill="currentColor" d="M6.293 11.707 2.294 7.708a1 1 0 0 1 0-1.416l3.999-3.999a.999.999 0 1 1 1.414 1.414L5.414 6H17a1 1 0 1 1 0 2H5.414l2.293 2.293a.999.999 0 1 1-1.414 1.414Zm15.63 4.911a1 1 0 0 0-.217-.326l-3.999-3.999a.999.999 0 1 0-1.414 1.414L18.586 16H7a1 1 0 1 0 0 2h11.586l-2.293 2.293a.999.999 0 1 0 1.414 1.414l4-3.999a1 1 0 0 0 .216-1.09Z"/></svg>
